docs/assets/img/logo-mobile.svg

<svg width="32" height="19" viewBox="0 0 32 19" fill="none" xmlns="http://www.w3.org/2000/svg">
<path d="M29.2583 2.95788C27.6802 1.37272 25.5859 0.386682 23.3435 0.173101C21.1011 -0.0404809 18.8541 0.532058 16.9974 1.79008C16.8349 1.90075 16.6762 2.01715 16.5194 2.13736C16.3626 2.25758 16.2156 2.38161 16.0684 2.519C15.9214 2.65639 15.8362 2.72699 15.722 2.83575L14.795 3.73451L14.3769 4.12569L13.9569 4.53022L8.8958 9.43426L13.8602 14.4298L14.2704 14.842L14.6808 15.2542C14.5317 15.382 14.3788 15.5023 14.222 15.6167C14.0653 15.7312 13.8989 15.8438 13.7344 15.9469C12.549 16.6833 11.1843 17.0915 9.78372 17.1283C8.3831 17.1651 6.99829 16.8293 5.77481 16.1561C4.55133 15.4829 3.53437 14.4972 2.83079 13.3027C2.12722 12.108 1.76302 10.7486 1.77646 9.36732C1.78989 7.98597 2.18047 6.63371 2.90716 5.45267C3.63385 4.2716 4.6698 3.30533 5.90614 2.6554C7.14251 2.00547 8.53358 1.69589 9.9332 1.75919C11.3328 1.8225 12.6893 2.25633 13.8602 3.01513L14.9053 2.00379L15.1549 1.77099C13.6904 0.734409 11.9586 0.126668 10.1592 0.017741C8.35968 -0.0911859 6.56552 0.303126 4.98336 1.15529C3.40117 2.00745 2.09522 3.28281 1.21587 4.83455C0.336514 6.38628 -0.0804969 8.15132 0.0128395 9.92647C0.106176 11.7016 0.706066 13.4146 1.74345 14.8684C2.78083 16.3222 4.21354 17.4576 5.87663 18.1439C7.53973 18.8302 9.36554 19.0395 11.144 18.7477C12.9224 18.4559 14.5811 17.6748 15.9291 16.4945C15.9872 16.4449 16.0433 16.3934 16.0994 16.3418L16.1885 16.2579L16.2736 16.1777L17.2026 15.2809L23.1075 9.57165L18.1374 4.57411L17.7271 4.16385L17.3168 3.74405C17.4658 3.6162 17.6187 3.49599 17.7755 3.3815C17.9323 3.26701 18.0987 3.15252 18.2651 3.05138C19.4504 2.31581 20.8147 1.90854 22.2147 1.87234C23.6147 1.83614 24.9988 2.17236 26.2215 2.84566C27.4442 3.51897 28.4604 4.50451 29.1634 5.69875C29.8664 6.89303 30.2302 8.25186 30.2165 9.63262C30.2029 11.0133 29.8123 12.365 29.0859 13.5455C28.3594 14.726 27.324 15.6919 26.0882 16.3416C24.8524 16.9913 23.462 17.3008 22.0629 17.2378C20.6639 17.1747 19.3079 16.7413 18.1374 15.9831L18.0213 16.0957L17.0923 16.9945L16.8426 17.2272C18.7892 18.6059 21.1895 19.2144 23.5691 18.9326C25.9487 18.6508 28.1345 17.4991 29.6946 15.7052C31.2546 13.9113 32.0754 11.6057 31.9946 9.24399C31.9138 6.88234 30.9373 4.63646 29.2583 2.95025V2.95788ZM20.6051 9.54875L16.7865 13.2391L16.3704 13.6437L15.9543 14.0482L15.5439 13.636L11.3925 9.46856L15.2091 5.77817L16.0433 4.97101L16.4517 5.38318L16.862 5.79342L20.6051 9.54875Z" fill="#E51E2F"/>
</svg>

<svg width="32" height="19" fill="none" xmlns="http://www.w3.org/2000/svg"><path d="M29.258 2.958a9.683 9.683 0 00-12.739-.82 6.03 6.03 0 00-.45.381c-.148.137-.233.208-.347.317l-.927.899-.418.39-.42.405-5.061 4.904 4.964 4.996.41.412.41.412a7.218 7.218 0 01-.458.363 7.881 7.881 0 01-4.438 1.512 7.889 7.889 0 01-4.01-.973 7.75 7.75 0 01-2.943-2.853 7.607 7.607 0 01-1.055-3.936 7.61 7.61 0 011.131-3.914 7.755 7.755 0 013-2.798 7.891 7.891 0 017.953.36l1.045-1.011.25-.233a9.685 9.685 0 00-10.172-.616 9.508 9.508 0 00-3.767 3.68 9.33 9.33 0 00.527 10.033 9.549 9.549 0 004.134 3.276 9.698 9.698 0 005.267.604 9.63 9.63 0 004.955-2.406l.09-.084.085-.08.929-.897 5.905-5.71-4.97-4.997-.41-.41-.411-.42a7.442 7.442 0 01.948-.693 7.887 7.887 0 017.956-.206A7.747 7.747 0 0129.163 5.7a7.604 7.604 0 01-.077 7.847 7.753 7.753 0 01-2.998 2.796 7.89 7.89 0 01-7.95-.359l-.117.113-.929.898-.25.233a9.676 9.676 0 006.727 1.706 9.614 9.614 0 006.126-3.228 9.356 9.356 0 002.3-6.461 9.374 9.374 0 00-2.737-6.294v.008zm-8.653 6.59l-3.819 3.691-.416.405-.416.404-.41-.412-4.152-4.167 3.817-3.69.834-.808.409.412.41.41 3.743 3.756z" fill="#E51E2F"/></svg>
